svg/search.svg

<svg width="48" height="33" viewBox="0 0 48 33" version="1.1" xmlns="http://www.w3.org/2000/svg" xmlns:xlink="http://www.w3.org/1999/xlink">
<title>Group</title>
<desc>Created using Figma</desc>
<g id="Canvas" transform="translate(-4536 874)">
<g id="Group">
<g id="Vector">
<use xlink:href="#path0_fill" transform="translate(4536 -874)" fill="#213148"/>
</g>
<g id="Vector">
<use xlink:href="#path1_fill" transform="translate(4541.21 -868.62)" fill="#213148"/>
</g>
</g>
</g>
<defs>
<path id="path0_fill" d="M 47.7983 29.82L 27.9383 20.48C 29.4478 17.059 29.5863 13.1889 28.325 9.66881C 27.0638 6.14867 24.4991 3.24716 21.1605 1.56322C 17.8218 -0.120713 13.9641 -0.458519 10.3836 0.619539C 6.80314 1.6976 3.77324 4.10922 1.91938 7.35658C 0.0655261 10.6039 -0.470757 14.4391 0.421238 18.0704C 1.31323 21.7017 3.56541 24.852 6.71285 26.8708C 9.86029 28.8897 13.6627 29.623 17.3352 28.9194C 21.0077 28.2159 24.2699 26.1291 26.4483 23.09L 46.5183 32.54L 47.7983 29.82ZM 14.6583 26.18C 12.3838 26.18 10.1604 25.5055 8.26925 24.2419C 6.37808 22.9783 4.9041 21.1822 4.03369 19.0808C 3.16328 16.9795 2.93554 14.6672 3.37927 12.4364C 3.823 10.2057 4.91827 8.15656 6.52658 6.54826C 8.13488 4.93996 10.184 3.84469 12.4148 3.40096C 14.6455 2.95723 16.9578 3.18496 19.0592 4.05537C 21.1605 4.92578 22.9566 6.39976 24.2202 8.29093C 25.4838 10.1821 26.1583 12.4055 26.1583 14.68C 26.1557 17.7292 24.9432 20.6527 22.7871 22.8088C 20.631 24.9649 17.7075 26.1773 14.6583 26.18Z"/>
<path id="path1_fill" d="M 9.45 19.14C 8.19 19.14 7.14 17.97 6.73 16.22C 5.22 17.15 3.64 17.22 2.73 16.34C 1.82 15.46 1.91 13.86 2.85 12.34C 1.18 11.91 1.90735e-07 10.8 1.90735e-07 9.58C 1.90735e-07 8.36 1.18 7.25 2.89 6.8C 1.95 5.27 1.89 3.69 2.77 2.8C 3.65 1.91 5.22 1.99 6.77 2.92C 7.18 1.17 8.23 -1.90735e-07 9.49 -1.90735e-07C 10.75 -1.90735e-07 11.8 1.17 12.21 2.92C 13.72 1.99 15.3 1.92 16.21 2.8C 17.12 3.68 17.03 5.28 16.09 6.8C 17.8 7.22 18.98 8.3 18.98 9.55C 18.98 10.8 17.8 11.88 16.09 12.3C 17.03 13.83 17.09 15.41 16.21 16.3C 15.33 17.19 13.75 17.11 12.21 16.18C 11.76 17.97 10.7 19.14 9.45 19.14ZM 7.45 14.39L 7.55 15.3C 7.73 16.92 8.55 18.14 9.42 18.14C 10.29 18.14 11.11 16.92 11.29 15.3L 11.39 14.39L 12.1 14.97C 13.35 15.97 14.76 16.26 15.39 15.63C 16.02 15 15.74 13.55 14.73 12.28L 14.17 11.58L 15.07 11.47C 16.66 11.29 17.87 10.47 17.87 9.58C 17.87 8.69 16.66 7.86 15.07 7.68L 14.17 7.58L 14.73 6.88C 15.73 5.6 16.02 4.16 15.39 3.53C 14.76 2.9 13.39 3.18 12.1 4.19L 11.39 4.77L 11.29 3.86C 11.11 2.24 10.29 1.02 9.42 1.02C 8.55 1.02 7.73 2.24 7.55 3.86L 7.45 4.77L 6.74 4.19C 5.49 3.19 4.08 2.89 3.45 3.53C 2.82 4.17 3.1 5.6 4.11 6.88L 4.67 7.58L 3.77 7.68C 2.18 7.86 0.97 8.68 0.97 9.58C 0.97 10.48 2.18 11.29 3.77 11.47L 4.67 11.58L 4.11 12.28C 3.11 13.55 2.82 15 3.45 15.63C 4.08 16.26 5.45 15.98 6.74 14.97L 7.45 14.39Z"/>
</defs>
</svg>

<svg width="48" height="33" xmlns="http://www.w3.org/2000/svg" xmlns:xlink="http://www.w3.org/1999/xlink" viewBox="0 0 306.67 310.43">
  <defs>
   <style>#path0_fill,#path1_fill{fill:#213148;color:#213148}
  </style>
  </defs>
  <path id="path0_fill" d="M47.8 29.82l-19.86-9.34a14.59 14.59 0 1 0-1.5 2.61l20.08 9.45 1.28-2.72zm-33.14-3.64a11.5 11.5 0 1 1 0-23 11.5 11.5 0 0 1 0 23z"/>
    <path id="path1_fill" d="M9.45 19.14c-1.26 0-2.31-1.17-2.72-2.92-1.51.93-3.09 1-4 .12-.91-.88-.82-2.48.12-4C1.18 11.91 0 10.8 0 9.58 0 8.36 1.18 7.25 2.89 6.8c-.94-1.53-1-3.11-.12-4 .88-.89 2.45-.81 4 .12C7.18 1.17 8.23 0 9.49 0c1.26 0 2.31 1.17 2.72 2.92 1.51-.93 3.09-1 4-.12.91.88.82 2.48-.12 4 1.71.42 2.89 1.5 2.89 2.75s-1.18 2.33-2.89 2.75c.94 1.53 1 3.11.12 4-.88.89-2.46.81-4-.12-.45 1.79-1.51 2.96-2.76 2.96zm-2-4.75l.1.91c.18 1.62 1 2.84 1.87 2.84.87 0 1.69-1.22 1.87-2.84l.1-.91.71.58c1.25 1 2.66 1.29 3.29.66.63-.63.35-2.08-.66-3.35l-.56-.7.9-.11c1.59-.18 2.8-1 2.8-1.89 0-.89-1.21-1.72-2.8-1.9l-.9-.1.56-.7c1-1.28 1.29-2.72.66-3.35-.63-.63-2-.35-3.29.66l-.71.58-.1-.91c-.18-1.62-1-2.84-1.87-2.84-.87 0-1.69 1.22-1.87 2.84l-.1.91-.71-.58c-1.25-1-2.66-1.3-3.29-.66-.63.64-.35 2.07.66 3.35l.56.7-.9.1c-1.59.18-2.8 1-2.8 1.9 0 .9 1.21 1.71 2.8 1.89l.9.11-.56.7c-1 1.27-1.29 2.72-.66 3.35.63.63 2 .35 3.29-.66l.71-.58z"/>
</svg>
